!!!!SEGMENT: pl-lzu--m-15111--001-022_noskowski-zygmunt--spiewnik-dla-dzieci-op-34-22-kukuleczka.krn
!!!cenid: 18xx:4719
!!!COM: Noskowski, Zygmunt
!!!COM-rismID: pe106604
!!!CDT: 1846/05/02-1909/07/23
!!!CNT: Polish
!!!GTL: Śpiewnik dla dzieci, op. 34
!!!OTL: 22. Kukułeczka
!!!OMV: 022
!!!PDT: 1890
!!!AGN: Secular; Song; Children
!!!YEC: Copyright 2022 Narodowy Instytut Fryderyka Chopina (https://polishscores.org)
!!!YEM: License CC-BY-4.0 (https://creativecommons.org/licenses/by/4.0)
!!!SMS-siglum: PL-LŹu
!!!SMS-shelfmark: M 15111
!!!SMS-variant:
!!!SMS-altvar:
!!!SMS-shelfwork: 001-022 G
!!!NIFC-rismSourceID: 1001234040
!!!NIFC-rismChildID: 1001234040
!!!NIFC-islandoraID: pl-lzu:5455
!!!URL-pdf-islandora: https://repozytorium.nifc.pl/islandora/object/pl-lzu%3A5455/datastream/PDF/view
!!!URL-scan: https://polish.musicsources.pl/pl/lokalizacje/galeria/druki-muzyczne/23228/29 @EN{Scan on Polish Music Sources Website} @PL{Skany w portalu Dziedzictwo Muzyki Polskiej w otwartym dostępie}
!!!IIIF:
!!!ONB-nifc:
!!!AIN: 1 piano 1 vox
!!!key: F
!!!OMD: Allegretto animato.
**kern	**kern	**dynam	**kern	**text	**text	**text	**text	**dynam
*part2	*part2	*part2	*part1	*part1	*part1	*part1	*part1	*part1
*staff3	*staff2	*staff2/3	*staff1	*staff1	*staff1	*staff1	*staff1	*staff1
*I"[Piano]	*I"[Piano]	*	*I"[Voice]	*	*	*	*	*
*I'pf	*I'pf	*	*I'V	*	*	*	*	*
*Ipiano	*Ipiano	*	*Ivox	*	*	*	*	*
*ICklav	*ICklav	*	*ICvox	*	*	*	*	*
*IGacmp	*IGacmp	*	*IGsolo	*	*	*	*	*
*>[A,A,A,A]	*>[A,A,A,A]	*>[A,A,A,A]	*>[A,A,A,A]	*>[A,A,A,A]	*>[A,A,A,A]	*>[A,A,A,A]	*>[A,A,A,A]	*>[A,A,A,A]
*>A	*>A	*>A	*>A	*>A	*>A	*>A	*>A	*>A
*clefF4	*clefG2	*	*clefG2	*	*	*	*	*
*k[b-]	*k[b-]	*	*k[b-]	*	*	*	*	*
*F:	*F:	*	*F:	*	*	*	*	*
*M3/4	*M3/4	*	*M3/4	*	*	*	*	*
=1	=1	=1	=1	=1	=1	=1	=1	=1
!	!LO:TX:a:i:t=Dosyć żwawo i z życiem.	!LO:DY:rj	!	!	!	!	!	!
2.C/	2.c/	p	2.r	.	.	.	.	.
=2	=2	=2	=2	=2	=2	=2	=2	=2
2G 2GG/	(2d 2Bn/	.	2.r	.	.	.	.	.
4r	8e/L	.	.	.	.	.	.	.
.	8d/J)	.	.	.	.	.	.	.
=3	=3	=3	=3	=3	=3	=3	=3	=3
4E 4C/	8.c/L	<	2.r	.	.	.	.	.
.	16c/Jk	.	.	.	.	.	.	.
4C/	4c/	.	.	.	.	.	.	.
4F\	4d 4c/	.	.	.	.	.	.	.
=4	=4	=4	=4	=4	=4	=4	=4	=4
4G\	8.eL 8.c/	[	2.r	.	.	.	.	.
.	16e/Jk	.	.	.	.	.	.	.
4C/	4e/	.	.	.	.	.	.	.
4A\	4f 4c/	.	.	.	.	.	.	.
=5	=5	=5	=5	=5	=5	=5	=5	=5
*	*	*	*	*v:1	*v:2	*v:3	*v:4	*
!	!	!	!	!	!	!	!	!LO:DY:rj
4c 4B-'\	8.gL 8.e/	mf	8.g/	Po	A	Oj	Zbu-	mf
.	16g/Jk	.	16g/	tym	ty	cho-	-rzy-	.
4C'/	4g/	.	4g/	cie-	ku-	-dzi-	-ły	.
4c 4B-'\	(8fL 8d/	.	(8f/L	-mnym	-ku-	-ły	mi	.
.	8gJ 8e/	.	8g/J)	.	.	.	.	.
!!LO:PB:g=original
=6	=6	=6	=6	=6	=6	=6	=6	=6
*	*	*	*	*v:1	*v:2	*v:3	*v:4	*
4c 4A'\	8aL 8f/	.	(8a/L	bo-	-łecz-	wi-	je-	.
.	8b-/J	.	8b-/J)	.	.	.	.	.
4C'/	4cc\)	.	4cc\	-ru	-ko,	-chry	-dno	.
4c 4A'\	4r	.	4r	.	.	.	.	.
=7	=7	=7	=7	=7	=7	=7	=7	=7
4c 4B-'\	(8gL 8e/	.	8g/	Ku-	Co	W zi-	A	.
.	8a/J	.	8a/	-ku-	na	-mo-	ja	.
4C'/	4b-/)	.	4b-/	-łecz-	drze-	-wej	dru-	.
4c 4B-'\	(8aL 8e/	.	(8a/L	-ka	-wach	za-	-gie	.
.	8g/J)	.	8g/J)	.	.	.	.	.
=8	=8	=8	=8	=8	=8	=8	=8	=8
4c 4F'\	4a 4f'/	.	4a/	ku-	sia-	-mie-	zro-	.
4A 4F'\	4f 4c'/	.	4f/	-ka,	-dasz,	-ci,	-bię,	.
4r	(8f/L	.	4r	.	.	.	.	.
.	8e/J)	.	.	.	.	.	.	.
=9	=9	=9	=9	=9	=9	=9	=9	=9
4G 4F\	(8dL 8Bn/	.	8d/	Z ran-	Ja-	Zbu-	Jesz-	.
.	8e/J	.	8e/	-ka	-kie	-rzy-	-cze	.
4GG/	4f/)	.	4f/	do	ty	-ły	po	.
4G 4F\	(8gL 8B-X/	.	(8g/L	wie-	no-	mi	tym	.
.	8a/J)	.	8a/J)	.	.	.	.	.
=10	=10	=10	=10	=10	=10	=10	=10	=10
4G 4E\	4g 4c/	.	4g/	-czo-	-wi-	gniaz-	le-	.
4GG/	4cc\	.	4cc\	-ru,	-ny	-dko	-sie	.
4G 4E\	4c/	.	4r	.	.	.	.	.
!!LO:LB:g=original
=11	=11	=11	=11	=11	=11	=11	=11	=11
*	*	*	*	*v:1	*v:2	*v:3	*v:4	*
4G 4F\	(<8bnL 8d/	.	8bn\	Gniazd-	W le-	Com	Bę-	.
.	8cc/J	.	8cc\	-ka	-sie	mia-	-dę	.
4GG'/	4dd\)	.	4dd\	so-	roz-	-ła	ku-	.
4Bn 4G\	(8eeL 8f\	.	(8ee\L	-bie	-po-	dla	-kać	.
.	8dd\J)	.	8dd\J)	.	.	.	.	.
=12	=12	=12	=12	=12	=12	=12	=12	=12
2c 2G 2C\	(2cc 2e/	.	2cc\	szu-	-wia-	dzie-	so-	.
4c 4B-X\	8ddL 8g\	.	(8dd\L	-ka.	-dasz?	-ci.	-bie.	.
.	8ee\J)	.	8ee\J)	.	.	.	.	.
=13	=13	=13	=13	=13	=13	=13	=13	=13
!	!	!	!	!	!	!	!	!LO:DY:rj
8c 8A'\	8ff 8f'\	.	4ff\	Ku-	Ku-	Ku-	Ku-	p
8r	8r	.	.	.	.	.	.	.
2c 2F\	2cc 2a 2f/	.	4cc\	-ku!	-ku!	-ku!	-ku!	.
.	.	.	4r	.	.	.	.	.
=14	=14	=14	=14	=14	=14	=14	=14	=14
8d 8B- 8D\	8ff 8b- 8f\	.	4ff\	Ku-	Ku-	Ku-	Ku-	.
8r	8r	.	.	.	.	.	.	.
2c 2F\	2cc 2a 2f/	.	4cc\	-ku!	-ku!	-ku!	-ku!	.
.	.	.	4r	.	.	.	.	.
=15	=15	=15	=15	=15	=15	=15	=15	=15
4c 4G\	(<8b-L 8e/	.	8b-\	Gniazd-	W le-	Com	Bę-	.
.	8cc/J	.	8cc\	-ka	-sie	mia-	-dę	.
4C/	4dd\)	.	4dd\	so-	roz-	-ła	ku-	.
4c 4G\	(8ccL 8e/	.	(8cc\L	-bie	-po-	dla	-kać	.
.	8b-/J)	.	8b-\J)	.	.	.	.	.
!!LO:LB:g=original
=16	=16	=16	=16	=16	=16	=16	=16	=16
*	*	*	*	*v:1	*v:2	*v:3	*v:4	*
*^	*	*	*	*	*	*	*	*
4c 4F\	4ryy	(8aL 8f/	.	(8a/L	szu-	-wia-	dzie-	so-	.
.	.	8b-/J)	.	8b-/J)	.	.	.	.	.
2A/	4F\	2cc 2f/	.	4cc\	-ka.	-dasz?	-ci.	-bie.	.
.	4E\	.	.	4r	.	.	.	.	.
*v	*v	*	*	*	*	*	*	*	*
=17	=17	=17	=17	=17	=17	=17	=17	=17
8c 8A 8D\	8ff 8a 8f'\	.	4ff\	Ku-	Ku-	Ku-	Ku-	.
8r	8r	.	.	.	.	.	.	.
2c 2A 2D^\	2cc 2a 2f^/	.	4cc\	-ku!	-ku!	-ku!	-ku!	.
.	.	.	4r	.	.	.	.	.
=18	=18	=18	=18	=18	=18	=18	=18	=18
8G 8D 8GG/	8ff 8bn 8f\	.	4ff\	Ku-	Ku-	Ku-	Ku-	.
8r	8r	.	.	.	.	.	.	.
2A 2F 2AA\	2cc 2f 2c/	.	4cc\	-ku!	-ku!	-ku!	-ku!	.
.	.	.	4r	.	.	.	.	.
=19	=19	=19	=19	=19	=19	=19	=19	=19
4C/	(8a/L	.	8a/	Gniazd-	W le-	Com	Bę-	.
.	8b-X/J	.	8b-/	-ka	-sie	mia-	-dę	.
4c 4B-\	4g 4e/)	.	4g/	so-	roz-	-ła	ku-	.
4G 4C\	(8ccL 8e/	.	(8cc\L	-bie	-po-	dla	-kać	.
.	8b-/J)	.	8b-\J)	.	.	.	.	.
=20	=20	=20	=20	=20	=20	=20	=20	=20
4FF/	(8a/L	.	(8a/L	szu-	-wia-	dzie-	so-	.
.	8g/J)	.	8g/J)	.	.	.	.	.
4A 4F\	4f 4c/	.	4f/	-ka.	-dasz.	-ci.	-bie.	.
4r	4r	.	4r	.	.	.	.	.
=:|!	=:|!	=:|!	=:|!	=:|!	=:|!	=:|!	=:|!	=:|!
*-	*-	*-	*-	*-	*-	*-	*-	*-
!!!system-decoration: p1{p2}
!!!RDF**kern: > = above
!!!RDF**kern: < = below
!!!ENC: Andrzej Gręziak
!!!END: 2025-03-05
!!!ENC: Marta Lawrence
!!!END: 2025-03-21
